X:509
T:Jazz Suite Waltz No. 2
C:Dmitri Shostakovich
N:For the dance "Barbara's Waltz" by Colin Hume
B:https://musescore.com/mozartandi3/shostakovich
L:1/4
M:3/4
R:Waltz
%%MIDI beat 100 95 80
%%MIDI program 57     Trombone
%%MIDI chordprog 60   French Horn
%%MIDI bassprog 58    Tuba
S:Colin Hume's website,  colinhume.com  - chords can also be printed below the stave.
Q:1/4=140
K:Cm
P:A
"Cm"G3 | E2D | C3- | CCD | ECE | G2A | "Fm"G3 | F3 |
P:B
"Fm"F3 | D2C | "G"=B,3- | =B,G,B, | D=B,D | FGA | "Cm"^F3 | G3 |
P:C
"Cm"e3 | d2c | "Fm"B2A | F3 | "Bb7"d3 | c2B | "Eb"B3 | z [I:MIDI=program 21] [I:MIDI=chordprog 21] [I:MIDI=bassprog 70] [ce][df] |
P:D
"Cm"[eg][eg]/[df]/[eg]/[fa]/ | "Fm"[df][df]/[ce]/[df]/[eg]/ | "Cm"[ce]2[eg] | "Fm"z[ce][df] | "Cm"[eg][eg]/[df]/[eg]/[fa]/ | "Fm"[df][df]/[ce]/[df]/[eg]/ |
"Cm"[ce]2[eg] | "Fm"z[Ac][Bd] | "Cm"[ce][ce]/[Bd]/[ce]/[df]/ | "G7"[=Bd][Bd]/[=Ac]/[Bd]/[ce]/ | "Cm"[Gc]3- | [Gc]3 ||

